app/img/icons/warranty.svg

<svg width="50" height="50" viewBox="0 0 50 50" fill="none" xmlns="http://www.w3.org/2000/svg">
<path d="M37.3104 42.0682L38.3836 40.0161C39.6821 37.5329 41.335 35.2593 43.2966 33.258L44.9176 31.6041L44.58 29.313C44.1714 26.5409 44.1726 23.7298 44.5838 20.9578L44.9235 18.6674L43.3209 17.0324C41.3457 15.0175 39.6838 12.7269 38.3813 10.2243L37.3252 8.19521L35.0813 7.81855C32.2897 7.35019 29.5897 6.47187 27.0565 5.20781L25.0206 4.19209L22.9726 5.21142C20.4469 6.46855 17.7554 7.34287 14.9727 7.80986L12.715 8.18876L11.6419 10.2408C10.3435 12.7238 8.69061 14.9976 6.72889 16.9989L5.10789 18.6528L5.44549 20.9439C5.85408 23.7161 5.85282 26.5272 5.44168 29.2992L5.10194 31.5896L6.70457 33.2246C8.67967 35.2394 10.3416 37.5299 11.6441 40.0327L12.7004 42.0619L14.9441 42.4385C17.7359 42.907 20.4359 43.7853 22.969 45.0493L25.005 46.065L27.0528 45.0456C29.5787 43.7885 32.2702 42.9142 35.0528 42.4472L37.3104 42.0682ZM25.0128 39.3195C17.1879 39.3195 10.8219 32.9534 10.8219 25.1285C10.8219 17.3036 17.1878 10.9375 25.0128 10.9375C32.8378 10.9375 39.2037 17.3035 39.2037 25.1284C39.2037 32.9533 32.8377 39.3195 25.0128 39.3195Z" fill="#0033A1"/>
<path d="M25.0128 13.883C18.812 13.883 13.7672 18.9277 13.7672 25.1285C13.7672 31.3293 18.812 36.3741 25.0128 36.3741C31.2135 36.3741 36.2583 31.3293 36.2583 25.1285C36.2583 18.9277 31.2135 13.883 25.0128 13.883ZM23.1951 30.7634L18.2813 25.8496L20.364 23.7669L23.1952 26.5981L29.7661 20.0273L31.8488 22.11L23.1951 30.7634Z" fill="#BE9230"/>
<path d="M44.4614 36.3308C43.1085 37.8684 41.9449 39.562 40.9936 41.3811L39.242 44.7305L37.0059 45.1058L41.8907 49.9906L44.0678 44.0051L50 41.8695L44.4614 36.3308Z" fill="#0033A1"/>
<path d="M39.2603 5.5334L40.9942 8.86455C41.9324 10.6674 43.0791 12.3473 44.4119 13.8752L50 8.28691L44.0679 6.15137L41.8909 0L36.9167 5.14004L39.2603 5.5334Z" fill="#0033A1"/>
<path d="M5.61194 13.8726C6.94494 12.3492 8.0925 10.6738 9.03264 8.87598L10.7844 5.52646L13.1064 5.13672L8.12619 0L5.95852 6.0208L0.000999451 8.26143L5.61194 13.8726Z" fill="#0033A1"/>
<path d="M10.7652 44.7236L9.03135 41.3924C8.08203 39.5683 6.91982 37.8699 5.56709 36.3278L0 41.895L5.95762 44.1357L8.12529 49.9999L13.0228 45.1025L10.7652 44.7236Z" fill="#0033A1"/>
</svg>

<svg width="50" height="50" fill="none" xmlns="http://www.w3.org/2000/svg"><path d="M37.31 42.068l1.074-2.052a28.541 28.541 0 014.913-6.758l1.62-1.654-.337-2.291a28.538 28.538 0 01.004-8.355l.34-2.29-1.603-1.636a28.539 28.539 0 01-4.94-6.808l-1.056-2.029-2.244-.376a28.53 28.53 0 01-8.025-2.611l-2.035-1.016-2.048 1.02a28.54 28.54 0 01-8 2.598l-2.258.379-1.073 2.052a28.54 28.54 0 01-4.913 6.758l-1.621 1.654.337 2.29a28.542 28.542 0 01-.003 8.356l-.34 2.29 1.603 1.636a28.535 28.535 0 014.94 6.808l1.055 2.029 2.244.377a28.535 28.535 0 018.025 2.61l2.036 1.016 2.048-1.02a28.544 28.544 0 018-2.598l2.257-.379zM25.013 39.32c-7.825 0-14.191-6.367-14.191-14.192 0-7.824 6.366-14.19 14.19-14.19 7.826 0 14.192 6.365 14.192 14.19 0 7.825-6.366 14.191-14.191 14.191z" fill="#0033A1"/><path d="M25.013 13.883c-6.201 0-11.246 5.045-11.246 11.245 0 6.201 5.045 11.246 11.246 11.246 6.2 0 11.245-5.045 11.245-11.246 0-6.2-5.045-11.245-11.245-11.245zm-1.818 16.88l-4.914-4.913 2.083-2.083 2.831 2.831 6.571-6.57 2.083 2.082-8.654 8.653z" fill="#BE9230"/><path d="M44.461 36.33a25.602 25.602 0 00-3.467 5.051l-1.752 3.35-2.236.375 4.885 4.885 2.177-5.986L50 41.87l-5.539-5.538zM39.26 5.533l1.734 3.332a25.588 25.588 0 003.418 5.01L50 8.287 44.068 6.15 41.89 0l-4.974 5.14 2.343.393zM5.612 13.873a25.596 25.596 0 003.42-4.997l1.752-3.35 2.322-.39L8.126 0 5.96 6.02 0 8.262l5.61 5.612zM10.765 44.724l-1.734-3.332a25.592 25.592 0 00-3.464-5.064L0 41.895l5.958 2.24L8.125 50l4.898-4.898-2.258-.378z" fill="#0033A1"/></svg>
